X:1
T:Luton, LM
T:George Burder, 1774
T:Luton, LM
T:Public Domain
C:George Burder, 1774
Z:Public Domain
%%score ( 1 2 ) ( 3 4 )
L:1/8
M:3/4
K:Eb
V:1 treble 
V:2 treble 
V:3 bass 
V:4 bass 
V:1
 [EB]2 | [EB]4 [Ec]2 | [EB]4 [FA]2 | [EG]4 [DF]2 | E4 [Ge]2 | (e2 d2) [Fc]2 | ([GB]2 [DA]2) [EG]2 | %7
 (A2 F2) [B,E]2 | [DB]6 | [EB]2 [EB]2 [EB]2 | [Ec]4 [Fc]2 | [Fd]4 [Ad]2 | [Ge]4 [Ge]2 | %13
 ([EB]2 [DA]2) [EG]2 | (A2 c2) [FA]2 | [EG]4 [DF]2 | E4 |] %17
V:2
 x2 | x6 | x6 | x6 | x6 | F4 x2 | x6 | B,4 x2 | x6 | x6 | x6 | x6 | x6 | x6 | E4 x2 | x6 | E4 |] %17
V:3
 [E,G,]2 | [E,G,]4 [A,,A,]2 | [E,G,]4 [A,,C]2 | [B,,B,]4 [B,,A,]2 | [E,G,]4 [E,B,]2 | B,4 (CD) | %6
 ([G,E]2 [F,B,]2) [F,B,]2 | [D,B,]4 [E,G,]2 | [B,,B,]6 | [E,G,]2 [G,B,]2 [E,G,]2 | A,4 [F,A,]2 | %11
 B,4 [B,,B,]2 | [E,B,]4 [E,B,]2 | (G,2 F,2) [E,B,]2 | (C2 A,2) [F,C]2 | B,4 [B,,A,]2 | [E,G,]4 |] %17
V:4
 x2 | x6 | x6 | x6 | x6 | B,4 A,2 | x6 | x6 | x6 | x6 | x6 | x6 | x6 | B,4 x2 | A,,4 x2 | x6 | %16
 x4 |] %17

